X: 1
T: Foley's Malarkey
M: 6/8
L: 1/8
R: jig
K: Gmaj
g>gg edB|dBe dBA|~G3 BGD|EFE E2D|
g>gg edB|dBe dBA|G2A BGD|1E2F GBd:|2E2F GEG|
|:~A3 BGD|EFE EDG|~A3 BGB|eag e2f|
g>gg edB|AGA B2e|dBG GAB|1EFE DEG:|2EFDFAd||
